modules/feathericon/icons/trash.svg

<?xml version="1.0" encoding="UTF-8"?>
<svg width="24px" height="24px" viewBox="0 0 24 24" version="1.1" xmlns="http://www.w3.org/2000/svg" xmlns:xlink="http://www.w3.org/1999/xlink">
    <!-- Generator: sketchtool 52.2 (67145) - http://www.bohemiancoding.com/sketch -->
    <title>trash</title>
    <desc>Created with sketchtool.</desc>
    <g id="web-app" stroke="none" stroke-width="1" fill="none" fill-rule="evenodd">
        <g id="trash" fill="#000000" fill-rule="nonzero">
            <path d="M4,5 L7,5 L7,4 C7,2.8954305 7.8954305,2 9,2 L15,2 C16.1045695,2 17,2.8954305 17,4 L17,5 L20,5 C20.5522847,5 21,5.44771525 21,6 C21,6.55228475 20.5522847,7 20,7 L19,7 L19,20 C19,21.1045695 18.1045695,22 17,22 L7,22 C5.8954305,22 5,21.1045695 5,20 L5,7 L4,7 C3.44771525,7 3,6.55228475 3,6 C3,5.44771525 3.44771525,5 4,5 Z M7,7 L7,20 L17,20 L17,7 L7,7 Z M9,5 L15,5 L15,4 L9,4 L9,5 Z M9,9 L11,9 L11,18 L9,18 L9,9 Z M13,9 L15,9 L15,18 L13,18 L13,9 Z" id="Shape"></path>
        </g>
    </g>
</svg>

<svg width="24" height="24" viewBox="0 0 24 24" xmlns="http://www.w3.org/2000/svg"><path d="M4 5h3V4a2 2 0 0 1 2-2h6a2 2 0 0 1 2 2v1h3a1 1 0 0 1 0 2h-1v13a2 2 0 0 1-2 2H7a2 2 0 0 1-2-2V7H4a1 1 0 1 1 0-2zm3 2v13h10V7H7zm2-2h6V4H9v1zm0 4h2v9H9V9zm4 0h2v9h-2V9z" fill="#000" fill-rule="nonzero"/></svg>
